X: 631
T: Sheehan’s
B: good tune book
B: tunes
M:4/4
R: reel
Q: 1/4=100
K:Gmajor
V:1 
D|:"G"{EF}G2 BG DGBG|"D7"ABcA "G"BGGB|"Am"AGAB cABG|EAAG "D7"FDEF|! "G"{EF}G2 BG DGBd|"C"cBAB "D7"cdef|"G"gedB "C"{B}c2 Bc|"D7"dBcA "G"BG G2:|! |:"G"g2 bg dgbg|gbag fede|"D"f2 af dfaf|"G"gbag "D7"fedf|! "G"g2 bg dgbg|gbag "D7"fedf|"G"gedB "C"{B}c2 Bc|"D7"dBcA "G"BG G2:|
% abcbook-tune_id 63dce862d6b3f2618b9a04f5
% abcbook-tune_composer_id 
% abcbook-link-0 https://www.youtube.com/watch?v=WNq2Qvb-Cek
% abcbook-boost 0
% abcbook-difficulty 0
% abcbook-tags good tune book
% abcbook-tablature 
% abcbook-transpose 
% abcbook-tuning 
% abcbook-lastupdated 1675479621500
% abcbook-soundfonts 
% abcbook-repeats 1


